root/assets/icons/g2e_social.svg

<svg width="64" height="52" viewBox="0 0 64 52" fill="none" xmlns="http://www.w3.org/2000/svg">
<path d="M42.0407 17.3298C49.7215 17.5816 55.9224 24.0174 55.9992 31.8048C56.0248 34.6561 55.2464 37.3186 53.8798 39.5811C53.6862 39.8995 53.6496 40.2884 53.7666 40.6401L55.1076 44.7134C55.568 46.1169 54.1941 47.4241 52.8421 46.8686L48.702 45.1652C48.3805 45.0319 48.0187 45.0356 47.7081 45.1837C45.8628 46.0651 43.8056 46.565 41.6351 46.5724C33.8556 46.6094 27.3697 40.2661 27.1431 32.3862C26.8983 23.947 33.7131 17.0557 42.0443 17.3261L42.0407 17.3298Z" fill="url(#paint0_linear_1075_1858)"/>
<path d="M42.0407 17.3298C49.7215 17.5816 55.9224 24.0174 55.9992 31.8048C56.0248 34.6561 55.2464 37.3186 53.8798 39.5811C53.6862 39.8995 53.6496 40.2884 53.7666 40.6401L55.1076 44.7134C55.568 46.1169 54.1941 47.4241 52.8421 46.8686L48.702 45.1652C48.3805 45.0319 48.0187 45.0356 47.7081 45.1837C45.8628 46.0651 43.8056 46.565 41.6351 46.5724C33.8556 46.6094 27.3697 40.2661 27.1431 32.3862C26.8983 23.947 33.7131 17.0557 42.0443 17.3261L42.0407 17.3298Z" fill="url(#paint1_linear_1075_1858)"/>
<foreignObject x="-10" y="-16" width="73.334" height="74.6172"><div xmlns="http://www.w3.org/1999/xhtml" style="backdrop-filter:blur(9px);clip-path:url(#bgblur_0_1075_1858_clip_path);height:100%;width:100%"></div></foreignObject><path data-figma-bg-blur-radius="18" d="M26.0869 3.00977C36.2657 2.67462 44.6253 11.1481 44.3262 21.5762C44.0477 31.3057 36.0903 39.1073 26.5879 39.0654L26.0908 39.0566C23.6189 38.9765 21.2774 38.373 19.1631 37.3574H19.1641C18.4831 37.0289 17.718 37.038 17.0625 37.3076L17.0605 37.3086L11.7041 39.5225H11.7031C10.7887 39.9006 9.75962 39.0179 10.1074 37.9561V37.9551L11.8398 32.6523L11.8418 32.6475C12.0586 31.9732 12.0137 31.22 11.6699 30.5703L11.5967 30.4424C9.9216 27.6593 8.96659 24.3741 9.00098 20.8535C9.09241 11.3875 16.4663 3.56461 25.6445 3.0293L26.083 3.00977H26.0869Z" fill="url(#paint2_linear_1075_1858)" stroke="url(#paint3_linear_1075_1858)" stroke-width="2"/>
<defs>
<clipPath id="bgblur_0_1075_1858_clip_path" transform="translate(10 16)"><path d="M26.0869 3.00977C36.2657 2.67462 44.6253 11.1481 44.3262 21.5762C44.0477 31.3057 36.0903 39.1073 26.5879 39.0654L26.0908 39.0566C23.6189 38.9765 21.2774 38.373 19.1631 37.3574H19.1641C18.4831 37.0289 17.718 37.038 17.0625 37.3076L17.0605 37.3086L11.7041 39.5225H11.7031C10.7887 39.9006 9.75962 39.0179 10.1074 37.9561V37.9551L11.8398 32.6523L11.8418 32.6475C12.0586 31.9732 12.0137 31.22 11.6699 30.5703L11.5967 30.4424C9.9216 27.6593 8.96659 24.3741 9.00098 20.8535C9.09241 11.3875 16.4663 3.56461 25.6445 3.0293L26.083 3.00977H26.0869Z"/>
</clipPath><linearGradient id="paint0_linear_1075_1858" x1="38.5255" y1="18.3222" x2="45.1889" y2="47.4118" gradientUnits="userSpaceOnUse">
<stop stop-color="#0BC7FF"/>
<stop offset="1" stop-color="#DB0EFE"/>
</linearGradient>
<linearGradient id="paint1_linear_1075_1858" x1="38.5255" y1="18.3222" x2="45.1889" y2="47.4118" gradientUnits="userSpaceOnUse">
<stop stop-color="#0BC7FF"/>
<stop offset="1" stop-color="#DB0EFE"/>
</linearGradient>
<linearGradient id="paint2_linear_1075_1858" x1="10.1077" y1="38.4371" x2="44.3451" y2="5.33768" gradientUnits="userSpaceOnUse">
<stop stop-color="white" stop-opacity="0.2"/>
<stop offset="1" stop-color="white" stop-opacity="0.49"/>
</linearGradient>
<linearGradient id="paint3_linear_1075_1858" x1="10.6353" y1="5.03718" x2="42.9703" y2="38.4616" gradientUnits="userSpaceOnUse">
<stop stop-color="white"/>
<stop offset="1" stop-color="white" stop-opacity="0"/>
</linearGradient>
</defs>
</svg>

<svg xmlns="http://www.w3.org/2000/svg" width="64" height="52" fill="none" viewBox="0 0 64 52"><path fill="url(#a)" d="M42.04 17.33c7.682.252 13.882 6.687 13.96 14.475a14.73 14.73 0 0 1-2.12 7.776 1.27 1.27 0 0 0-.113 1.06l1.34 4.072c.461 1.404-.913 2.711-2.265 2.156l-4.14-1.704a1.22 1.22 0 0 0-.994.019 14.2 14.2 0 0 1-6.073 1.388c-7.78.037-14.265-6.306-14.492-14.186-.245-8.439 6.57-15.33 14.901-15.06z"/><path fill="url(#b)" d="M42.04 17.33c7.682.252 13.882 6.687 13.96 14.475a14.73 14.73 0 0 1-2.12 7.776 1.27 1.27 0 0 0-.113 1.06l1.34 4.072c.461 1.404-.913 2.711-2.265 2.156l-4.14-1.704a1.22 1.22 0 0 0-.994.019 14.2 14.2 0 0 1-6.073 1.388c-7.78.037-14.265-6.306-14.492-14.186-.245-8.439 6.57-15.33 14.901-15.06z"/><foreignObject width="73.334" height="74.617" x="-10" y="-16"><div xmlns="http://www.w3.org/1999/xhtml" style="backdrop-filter:blur(9px);clip-path:url(#c);height:100%;width:100%"/></foreignObject><path fill="url(#d)" stroke="url(#e)" stroke-width="2" d="M26.087 3.01c10.179-.335 18.538 8.138 18.24 18.566-.28 9.73-8.237 17.531-17.74 17.49l-.496-.01a17.25 17.25 0 0 1-6.928-1.699h.001a2.58 2.58 0 0 0-2.102-.05l-.002.002-5.356 2.214c-.915.378-1.944-.505-1.597-1.567l1.733-5.304.002-.005a2.7 2.7 0 0 0-.172-2.077l-.073-.128A18.2 18.2 0 0 1 9 20.854c.091-9.466 7.465-17.29 16.644-17.825l.438-.02z" data-figma-bg-blur-radius="18"/><defs><linearGradient id="a" x1="38.526" x2="45.189" y1="18.322" y2="47.412" gradientUnits="userSpaceOnUse"><stop stop-color="#0bc7ff"/><stop offset="1" stop-color="#db0efe"/></linearGradient><linearGradient id="b" x1="38.526" x2="45.189" y1="18.322" y2="47.412" gradientUnits="userSpaceOnUse"><stop stop-color="#0bc7ff"/><stop offset="1" stop-color="#db0efe"/></linearGradient><linearGradient id="d" x1="10.108" x2="44.345" y1="38.437" y2="5.338" gradientUnits="userSpaceOnUse"><stop stop-color="#fff" stop-opacity=".2"/><stop offset="1" stop-color="#fff" stop-opacity=".49"/></linearGradient><linearGradient id="e" x1="10.635" x2="42.97" y1="5.037" y2="38.462" gradientUnits="userSpaceOnUse"><stop stop-color="#fff"/><stop offset="1" stop-color="#fff" stop-opacity="0"/></linearGradient><clipPath id="c" transform="translate(10 16)"><path d="M26.087 3.01c10.179-.335 18.538 8.138 18.24 18.566-.28 9.73-8.237 17.531-17.74 17.49l-.496-.01a17.25 17.25 0 0 1-6.928-1.699h.001a2.58 2.58 0 0 0-2.102-.05l-.002.002-5.356 2.214c-.915.378-1.944-.505-1.597-1.567l1.733-5.304.002-.005a2.7 2.7 0 0 0-.172-2.077l-.073-.128A18.2 18.2 0 0 1 9 20.854c.091-9.466 7.465-17.29 16.644-17.825l.438-.02z"/></clipPath></defs></svg>
